flaticon/outdoor/fishing-vest.svg

<svg xmlns="http://www.w3.org/2000/svg" width="32" height="32" viewBox="0 0 24 24">
    <path d="M 21.203125 10.152344 C 19.59375 9.78125 18.945312 4.285156 18.914062 0.910156 L 18.910156 0.851562 C 18.855469 0.417969 18.523438 0.078125 18.089844 0.0117188 C 17.691406 -0.0507812 17.3125 0.128906 17.101562 0.460938 C 17.078125 0.472656 17.050781 0.484375 17.027344 0.503906 C 15.867188 1.476562 14.035156 2.035156 12 2.035156 C 10.085938 2.035156 8.203125 1.457031 6.960938 0.492188 C 6.941406 0.476562 6.917969 0.472656 6.898438 0.460938 C 6.6875 0.128906 6.3125 -0.0507812 5.910156 0.0117188 C 5.476562 0.078125 5.144531 0.414062 5.089844 0.851562 L 5.085938 0.910156 C 5.054688 4.285156 4.40625 9.78125 2.796875 10.152344 C 2.46875 10.226562 2.238281 10.515625 2.238281 10.855469 L 2.238281 20.9375 C 2.238281 22.625 3.613281 24 5.300781 24 L 8.597656 24 C 9.3125 24 10.007812 23.746094 10.558594 23.289062 C 10.9375 22.972656 11.394531 22.808594 11.859375 22.78125 L 12.140625 22.78125 C 12.605469 22.808594 13.0625 22.972656 13.441406 23.289062 C 13.992188 23.746094 14.6875 24 15.402344 24 L 18.699219 24 C 20.386719 24 21.761719 22.625 21.761719 20.9375 L 21.761719 10.855469 C 21.761719 10.515625 21.53125 10.226562 21.203125 10.152344 Z M 20.949219 10.925781 L 20.949219 10.984375 L 13.628906 10.984375 L 13.628906 8.136719 L 18.914062 8.136719 C 18.941406 8.136719 18.96875 8.125 18.992188 8.121094 C 19.414062 9.535156 20.035156 10.667969 20.949219 10.925781 Z M 11.859375 21.964844 L 11.1875 21.964844 L 11.1875 21.558594 L 12.8125 21.558594 L 12.8125 21.964844 L 12.140625 21.964844 C 12.046875 21.960938 11.953125 21.960938 11.859375 21.964844 Z M 11.1875 17.492188 L 11.1875 16.679688 L 12.8125 16.679688 L 12.8125 17.492188 Z M 12.8125 18.304688 L 12.8125 19.117188 L 11.1875 19.117188 L 11.1875 18.304688 Z M 11.1875 15.863281 L 11.1875 15.050781 L 12.8125 15.050781 L 12.8125 15.863281 Z M 11.1875 14.238281 L 11.1875 13.421875 L 12.8125 13.421875 L 12.8125 14.238281 Z M 11.1875 19.933594 L 12.8125 19.933594 L 12.8125 20.746094 L 11.1875 20.746094 Z M 12.8125 12.609375 L 11.1875 12.609375 L 11.1875 11.796875 L 12.8125 11.796875 Z M 12.8125 9.355469 L 11.1875 9.355469 L 11.1875 8.542969 L 12.8125 8.542969 Z M 11.1875 10.167969 L 12.8125 10.167969 L 12.8125 10.984375 L 11.1875 10.984375 Z M 12.8125 6.914062 L 12.8125 7.730469 L 11.1875 7.730469 L 11.1875 6.914062 Z M 17.964844 0.816406 C 18.023438 0.824219 18.089844 0.855469 18.101562 0.917969 C 18.105469 1.488281 18.164062 4.683594 18.78125 7.320312 L 13.628906 7.320312 L 13.628906 6.390625 C 15.820312 5.023438 17.546875 1.410156 17.777344 0.914062 C 17.828125 0.808594 17.925781 0.8125 17.964844 0.816406 Z M 16.351562 1.90625 C 15.203125 3.917969 13.480469 6.101562 12 6.101562 C 10.507812 6.101562 8.769531 3.882812 7.625 1.859375 C 8.886719 2.488281 10.4375 2.847656 12 2.847656 C 13.652344 2.847656 15.144531 2.515625 16.351562 1.90625 Z M 5.894531 0.953125 C 5.910156 0.855469 5.976562 0.824219 6.035156 0.816406 C 6.074219 0.8125 6.171875 0.808594 6.222656 0.914062 C 6.453125 1.410156 8.179688 5.023438 10.371094 6.390625 L 10.371094 7.320312 L 5.21875 7.320312 C 5.835938 4.6875 5.894531 1.5 5.894531 0.953125 Z M 3.050781 10.925781 C 3.964844 10.667969 4.585938 9.535156 5.007812 8.121094 C 5.03125 8.125 5.058594 8.136719 5.085938 8.136719 L 10.371094 8.136719 L 10.371094 10.984375 L 3.050781 10.984375 Z M 8.597656 23.1875 L 5.300781 23.1875 C 4.0625 23.1875 3.050781 22.175781 3.050781 20.9375 L 3.050781 11.796875 L 10.371094 11.796875 L 10.371094 22.433594 C 10.257812 22.503906 10.144531 22.578125 10.039062 22.664062 C 9.632812 23 9.121094 23.1875 8.597656 23.1875 Z M 20.949219 20.9375 C 20.949219 22.175781 19.941406 23.1875 18.699219 23.1875 L 15.402344 23.1875 C 14.878906 23.1875 14.367188 23 13.960938 22.664062 C 13.855469 22.578125 13.742188 22.503906 13.628906 22.433594 L 13.628906 11.796875 L 20.949219 11.796875 Z M 20.949219 20.9375"/>
    <path d="M3.457031 20.339844L9.964844 20.339844 9.964844 13.832031 3.457031 13.832031zM4.269531 19.527344L4.269531 16.34375 6.425781 18.191406 6.730469 18.417969 9.152344 16.34375 9.152344 19.527344zM9.152344 14.644531L9.152344 15.269531 6.710938 17.363281 4.269531 15.269531 4.269531 14.644531zM20.542969 19.519531L20.542969 13.832031 14.035156 13.832031 14.035156 20.339844 19.722656 20.339844C20.175781 20.339844 20.542969 19.972656 20.542969 19.519531zM19.730469 14.644531L19.730469 15.269531 17.289062 17.363281 14.847656 15.269531 14.847656 14.644531zM14.847656 16.34375L17.003906 18.191406 17.304688 18.417969 19.730469 16.34375 19.730469 19.519531C19.730469 19.523438 19.726562 19.527344 19.722656 19.527344L14.847656 19.527344zM14.847656 16.34375"/>
    <path d="M7.117188 15.863281C7.117188 16.089844 6.9375 16.269531 6.710938 16.269531 6.488281 16.269531 6.304688 16.089844 6.304688 15.863281 6.304688 15.640625 6.488281 15.457031 6.710938 15.457031 6.9375 15.457031 7.117188 15.640625 7.117188 15.863281zM17.695312 15.863281C17.695312 16.089844 17.511719 16.269531 17.289062 16.269531 17.0625 16.269531 16.882812 16.089844 16.882812 15.863281 16.882812 15.640625 17.0625 15.457031 17.289062 15.457031 17.511719 15.457031 17.695312 15.640625 17.695312 15.863281zM7 8.660156C6.839844 8.503906 6.582031 8.503906 6.425781 8.660156L6.101562 8.984375 5.777344 8.660156C5.621094 8.503906 5.363281 8.503906 5.203125 8.660156 5.042969 8.820312 5.042969 9.078125 5.203125 9.238281L5.527344 9.558594 5.203125 9.882812C5.042969 10.039062 5.042969 10.296875 5.203125 10.457031 5.285156 10.535156 5.386719 10.578125 5.492188 10.578125 5.59375 10.578125 5.699219 10.535156 5.777344 10.457031L6.101562 10.132812 6.425781 10.457031C6.503906 10.535156 6.609375 10.578125 6.710938 10.578125 6.816406 10.578125 6.921875 10.535156 7 10.457031 7.160156 10.296875 7.160156 10.039062 7 9.882812L6.675781 9.558594 7 9.238281C7.160156 9.078125 7.160156 8.820312 7 8.660156zM9.523438 9.558594L9.847656 9.238281C10.007812 9.078125 10.007812 8.820312 9.847656 8.660156 9.6875 8.503906 9.429688 8.503906 9.273438 8.660156L8.949219 8.984375 8.625 8.660156C8.46875 8.503906 8.210938 8.503906 8.050781 8.660156 7.890625 8.820312 7.890625 9.078125 8.050781 9.238281L8.375 9.558594 8.050781 9.882812C7.890625 10.039062 7.890625 10.296875 8.050781 10.457031 8.128906 10.535156 8.234375 10.578125 8.339844 10.578125 8.441406 10.578125 8.546875 10.535156 8.625 10.457031L8.949219 10.132812 9.273438 10.457031C9.351562 10.535156 9.457031 10.578125 9.558594 10.578125 9.664062 10.578125 9.769531 10.535156 9.847656 10.457031 10.007812 10.296875 10.007812 10.039062 9.847656 9.882812zM15.949219 8.660156C15.789062 8.503906 15.53125 8.503906 15.375 8.660156L15.050781 8.984375 14.726562 8.660156C14.570312 8.503906 14.3125 8.503906 14.152344 8.660156 13.992188 8.820312 13.992188 9.078125 14.152344 9.238281L14.476562 9.558594 14.152344 9.882812C13.992188 10.039062 13.992188 10.296875 14.152344 10.457031 14.230469 10.535156 14.335938 10.578125 14.441406 10.578125 14.542969 10.578125 14.648438 10.535156 14.726562 10.457031L15.050781 10.132812 15.375 10.457031C15.453125 10.535156 15.558594 10.578125 15.660156 10.578125 15.765625 10.578125 15.871094 10.535156 15.949219 10.457031 16.109375 10.296875 16.109375 10.039062 15.949219 9.882812L15.625 9.558594 15.949219 9.238281C16.109375 9.078125 16.109375 8.820312 15.949219 8.660156zM18.796875 8.660156C18.636719 8.503906 18.378906 8.503906 18.222656 8.660156L17.898438 8.984375 17.574219 8.660156C17.417969 8.503906 17.160156 8.503906 17 8.660156 16.839844 8.820312 16.839844 9.078125 17 9.238281L17.324219 9.558594 17 9.882812C16.839844 10.039062 16.839844 10.296875 17 10.457031 17.078125 10.535156 17.183594 10.578125 17.289062 10.578125 17.390625 10.578125 17.496094 10.535156 17.574219 10.457031L17.898438 10.132812 18.222656 10.457031C18.300781 10.535156 18.40625 10.578125 18.507812 10.578125 18.613281 10.578125 18.714844 10.535156 18.796875 10.457031 18.957031 10.296875 18.957031 10.039062 18.796875 9.882812L18.472656 9.558594 18.796875 9.238281C18.957031 9.078125 18.957031 8.820312 18.796875 8.660156zM18.796875 8.660156"/>
</svg>

<svg xmlns="http://www.w3.org/2000/svg" width="32" height="32" viewBox="0 0 24 24">
    <path d="M21.203 10.152c-1.61-.37-2.258-5.867-2.289-9.242L18.91.852a.97.97 0 0 0-.82-.84.981.981 0 0 0-.988.449c-.024.012-.051.023-.075.043-1.16.973-2.992 1.531-5.027 1.531-1.914 0-3.797-.578-5.04-1.543-.019-.015-.042-.02-.062-.031A.978.978 0 0 0 5.91.01a.966.966 0 0 0-.82.84l-.004.06c-.031 3.374-.68 8.87-2.29 9.241a.716.716 0 0 0-.558.703v10.082A3.067 3.067 0 0 0 5.301 24h3.297c.714 0 1.41-.254 1.96-.71.38-.317.837-.481 1.301-.509h.282c.464.028.921.192 1.3.508.551.457 1.246.711 1.961.711H18.7a3.067 3.067 0 0 0 3.063-3.063V10.855c0-.34-.23-.628-.559-.703zm-.254.774v.058h-7.32V8.137h5.285c.027 0 .055-.012.078-.016.422 1.414 1.043 2.547 1.957 2.805zm-9.09 11.039h-.671v-.406h1.624v.406h-.671a3.377 3.377 0 0 0-.282 0zm-.671-4.473v-.812h1.624v.812zm1.624.813v.812h-1.624v-.812zm-1.624-2.442v-.812h1.624v.812zm0-1.625v-.816h1.624v.816zm0 5.696h1.624v.812h-1.624zm1.624-7.325h-1.624v-.812h1.624zm0-3.254h-1.624v-.812h1.624zm-1.624.813h1.624v.816h-1.624zm1.624-3.254v.816h-1.624v-.816zM17.965.816c.058.008.125.04.137.102.003.57.062 3.766.68 6.402h-5.153v-.93c2.191-1.367 3.918-4.98 4.148-5.476.051-.105.149-.102.188-.098zm-1.613 1.09C15.203 3.918 13.48 6.102 12 6.102c-1.492 0-3.23-2.22-4.375-4.243 1.262.63 2.813.989 4.375.989 1.652 0 3.145-.332 4.352-.942zM5.895.953c.015-.098.082-.129.14-.137.04-.003.137-.007.188.098.23.496 1.957 4.11 4.148 5.477v.93H5.22c.617-2.633.676-5.821.676-6.368zM3.05 10.926c.914-.258 1.535-1.39 1.957-2.805.023.004.05.016.078.016h5.285v2.847h-7.32zm5.547 12.261H5.3a2.256 2.256 0 0 1-2.25-2.25v-9.14h7.32v10.637c-.113.07-.226.144-.332.23a2.27 2.27 0 0 1-1.441.523zm12.351-2.25a2.253 2.253 0 0 1-2.25 2.25h-3.297a2.27 2.27 0 0 1-1.441-.523 3.152 3.152 0 0 0-.332-.23V11.797h7.32zm0 0"/>
    <path d="M3.457 20.34h6.508v-6.508H3.457zm.813-.813v-3.183l2.156 1.847.304.227 2.422-2.074v3.183zm4.882-4.882v.625l-2.441 2.093L4.27 15.27v-.625zm0 0M20.543 19.52v-5.688h-6.508v6.508h5.688a.82.82 0 0 0 .82-.82zm-.813-4.875v.625l-2.44 2.093-2.442-2.093v-.625zm-4.882 1.699l2.156 1.847.3.227 2.426-2.074v3.176a.008.008 0 0 1-.007.007h-4.875zm0 0"/>
    <path d="M7.117 15.863a.406.406 0 1 1-.813 0 .406.406 0 0 1 .813 0zm0 0M17.695 15.863a.406.406 0 1 1-.812 0 .406.406 0 0 1 .812 0zm0 0M7 8.66a.41.41 0 0 0-.574 0l-.324.324-.325-.324a.408.408 0 0 0-.574.578l.324.32-.324.325a.403.403 0 0 0 0 .574.419.419 0 0 0 .29.121.41.41 0 0 0 .284-.121l.325-.324.324.324a.41.41 0 0 0 .285.121c.105 0 .21-.043.289-.121a.403.403 0 0 0 0-.574l-.324-.324.324-.32a.408.408 0 0 0 0-.579zm0 0M9.523 9.559l.325-.32a.408.408 0 0 0-.575-.579l-.324.324-.324-.324a.408.408 0 0 0-.574.578l.324.32-.324.325a.403.403 0 0 0 0 .574.412.412 0 0 0 .289.121.41.41 0 0 0 .285-.121l.324-.324.324.324a.41.41 0 0 0 .286.121c.105 0 .21-.043.289-.121a.403.403 0 0 0 0-.574zm0 0M15.95 8.66a.41.41 0 0 0-.575 0l-.324.324-.324-.324a.408.408 0 0 0-.574.578l.324.32-.325.325a.403.403 0 0 0 0 .574.412.412 0 0 0 .29.121.41.41 0 0 0 .285-.121l.324-.324.324.324a.41.41 0 0 0 .285.121c.106 0 .211-.043.29-.121a.403.403 0 0 0 0-.574l-.325-.324.324-.32a.408.408 0 0 0 0-.579zm0 0M18.797 8.66a.41.41 0 0 0-.574 0l-.325.324-.324-.324a.408.408 0 0 0-.574.578l.324.32-.324.325a.403.403 0 0 0 0 .574.412.412 0 0 0 .29.121.41.41 0 0 0 .284-.121l.324-.324.325.324a.41.41 0 0 0 .285.121.419.419 0 0 0 .289-.121.403.403 0 0 0 0-.574l-.324-.324.324-.32a.408.408 0 0 0 0-.579zm0 0"/>
</svg>
